svg/alphanum/4-square.svg

<svg width="448" height="512" viewBox="0 0 448 512" version="1.1" xmlns="http://www.w3.org/2000/svg"><path fill="currentColor" d="M400,480l-352,0c-26.51,0 -48,-21.49 -48,-48l0,-352c0,-26.51 21.49,-48 48,-48l352,0c26.51,0 48,21.49 48,48l0,352c0,26.51 -21.489,47.999 -48,48Zm-112,-352l-45.838,0c-6.108,0 -11.51,3.014 -14.802,7.636c-0.506,0.475 -0.986,0.989 -1.437,1.54l-110.176,134.746c-2.049,2.506 -3.212,5.446 -3.526,8.442c-0.145,0.802 -0.221,1.629 -0.221,2.474l0,37.162c0,4.876 2.182,9.243 5.622,12.178c2.404,2.051 5.423,3.402 8.742,3.739c0.538,0.055 1.083,0.083 1.636,0.083l112,0l0,32c0,8.837 7.163,16 16,16l32,0c8.837,0 16,-7.163 16,-16l0,-32l16,0c8.837,0 16,-7.163 16,-16l0,-16c0,-8.837 -7.163,-16 -16,-16l-16,0l0,-144c0,-8.837 -7.162,-15.999 -16,-16Zm-113.062,160l65.062,0l0,-79.571l-65.062,79.571Z"></path></svg>

<svg width="448" height="512" viewBox="0 0 448 512" fill="none" xmlns="http://www.w3.org/2000/svg">
<path d="M174.938 288L240 208.429V288L174.938 288Z" fill="black"/>
<path fill-rule="evenodd" clip-rule="evenodd" d="M48 32C21.4903 32 0 53.4903 0 80V432C0 458.51 21.4903 480 48 480H400C426.51 480 448 458.51 448 432V80C448 53.4903 426.51 32 400 32H48ZM242.162 128C236.055 128 230.652 131.014 227.36 135.636C226.854 136.111 226.374 136.625 225.923 137.176L115.747 271.922C113.698 274.428 112.535 277.368 112.221 280.364C112.076 281.166 112 281.993 112 282.838V303.925L112 304V320C112 324.876 114.182 329.243 117.622 332.178C120.026 334.229 123.045 335.58 126.364 335.917C126.902 335.972 127.448 336 128 336H240V368C240 376.837 247.163 384 256 384H288C296.837 384 304 376.837 304 368V336H320C328.837 336 336 328.837 336 320V304C336 295.163 328.837 288 320 288H304V144C304 135.163 296.837 128 288 128H242.162Z" fill="black"/>
</svg>
